src/assets/images/prototype/produits-utilises/9-detartrant.svg

<svg width="271" height="737" viewBox="0 0 271 737" fill="none" xmlns="http://www.w3.org/2000/svg">
<path d="M208.392 66C214.378 78.5568 232.095 113.05 255.08 150.566C283.81 197.462 257.773 657.197 255.08 684.104C252.925 705.63 237.648 724.337 228.969 731C220.29 737.663 44.3499 732.227 39.9688 731C27.4688 727.5 7.43033 711.971 5.77729 681.5C-0.744857 561.276 5.93098 262.933 8.46876 252.5C17.4688 215.5 39.9687 180.5 65.6365 163.636C91.3043 146.772 124.594 127.247 138.361 114.434" stroke="#E0E0E0" stroke-width="5" stroke-dasharray="10 10"/>
<path d="M166.547 27.612C159.163 16.5366 143.986 6.58925 137.32 3L113.477 16.0751C117.836 24.5355 125.937 43.1483 123.476 49.9166" stroke="#E0E0E0" stroke-width="5" stroke-dasharray="10 10"/>
<path d="M213.477 73.5403L180.635 21.4707C180.635 21.4707 174.209 21.4707 166 22.8034M139.641 116.611L111.183 57.3887C111.183 57.3887 116.175 52.1766 123 46.0151" stroke="#E0E0E0" stroke-width="5" stroke-dasharray="10 10"/>
</svg>

<svg width="271" height="737" fill="none" xmlns="http://www.w3.org/2000/svg"><path d="M208.392 66c5.986 12.557 23.703 47.05 46.688 84.566 28.73 46.896 2.693 506.631 0 533.538-2.155 21.526-17.432 40.233-26.111 46.896-8.679 6.663-184.62 1.227-189 0-12.5-3.5-32.539-19.029-34.192-49.5-6.522-120.224.154-418.567 2.692-429 9-37 31.5-72 57.167-88.864 25.668-16.864 58.958-36.389 72.725-49.202m28.186-86.822C159.163 16.537 143.986 6.589 137.32 3l-23.843 13.075c4.359 8.46 12.46 27.073 9.999 33.842" stroke="#E0E0E0" stroke-width="5" stroke-dasharray="10 10"/><path d="M213.477 73.54l-32.842-52.07s-6.426 0-14.635 1.333m-26.359 93.808l-28.458-59.222s4.992-5.212 11.817-11.374" stroke="#E0E0E0" stroke-width="5" stroke-dasharray="10 10"/></svg>
